X: 3303
Q: "Moderato."
M: 3/4
L: 1/4
K: G
ud |\
ceg | gfe | edd | (d2B) |\
dcc | (a2c) | cBB | (g2B) |\
dcc | cBB | d/^c/e/d/=c/A/ | G2 :|


